assets/pipecat/mono.svg

<svg viewBox="0 0 24 24" xmlns="http://www.w3.org/2000/svg"><path d="m3.309 5.116a.87.87 0 0 1 .958.24l3.102 3.534h9.262l3.102-3.536a.867.867 0 0 1 1.52.573v7.807h2.747v1.735h-4.482v-7.237l-1.842 2.099a.87.87 0 0 1 -.652.295h-10.048a.87.87 0 0 1 -.652-.295l-1.842-2.1v7.239h-4.482v-1.735h2.747v-7.807c0-.362.224-.685.562-.812m16.209 12.089h4.482v1.735h-4.482zm-19.518 0h4.482v1.735h-4.482zm9.253-2.892a1.157 1.157 0 1 1 -2.314 0 1.157 1.157 0 0 1 2.314 0m7.807 0a1.157 1.157 0 1 1 -2.313 0 1.157 1.157 0 0 1 2.313 0"/></svg>

<svg xmlns="http://www.w3.org/2000/svg" viewBox="0 0 24 24"><path d="M3.309 5.116a.87.87 0 0 1 .958.24L7.369 8.89h9.262l3.102-3.536a.867.867 0 0 1 1.52.573v7.807H24v1.735h-4.482V8.232l-1.842 2.099a.87.87 0 0 1-.652.295H6.976a.87.87 0 0 1-.652-.295l-1.842-2.1v7.239H0v-1.735h2.747V5.928c0-.362.224-.685.562-.812m16.209 12.089H24v1.735h-4.482zM0 17.205h4.482v1.735H0zm9.253-2.892a1.157 1.157 0 1 1-2.314 0 1.157 1.157 0 0 1 2.314 0m7.807 0a1.157 1.157 0 1 1-2.313 0 1.157 1.157 0 0 1 2.313 0"/></svg>
